storage/app/icons/phosphoricons/bold/cable-car-bold.svg

<svg xmlns="http://www.w3.org/2000/svg" viewBox="0 0 256 256" fill="currentColor"><path d="M251.81,29.89a12,12,0,0,0-13.92-9.7l-224,40A12,12,0,0,0,16,84a11.77,11.77,0,0,0,2.12-.19L116,66.33V92H64a36,36,0,0,0-36,36v64a36,36,0,0,0,36,36H192a36,36,0,0,0,36-36V128a36,36,0,0,0-36-36H140V62.05L242.11,43.81A12,12,0,0,0,251.81,29.89ZM108,156V116h40v40ZM64,116H84v40H52V128A12,12,0,0,1,64,116Zm128,88H64a12,12,0,0,1-12-12V180H204v12A12,12,0,0,1,192,204Zm12-76v28H172V116h20A12,12,0,0,1,204,128Z"/></svg>

<svg xmlns="http://www.w3.org/2000/svg" fill="currentColor" viewBox="0 0 256 256"><path d="M251.81 29.89a12 12 0 0 0-13.92-9.7l-224 40A12 12 0 0 0 16 84a12 12 0 0 0 2.12-.19L116 66.33V92H64a36 36 0 0 0-36 36v64a36 36 0 0 0 36 36h128a36 36 0 0 0 36-36v-64a36 36 0 0 0-36-36h-52V62.05l102.11-18.24a12 12 0 0 0 9.7-13.92M108 156v-40h40v40Zm-44-40h20v40H52v-28a12 12 0 0 1 12-12m128 88H64a12 12 0 0 1-12-12v-12h152v12a12 12 0 0 1-12 12m12-76v28h-32v-40h20a12 12 0 0 1 12 12"/></svg>
